X:0366
M:2/4
L:1/8
Q:1/4=80
K:A Dorian
  A2    A>B|e2 d>B|A2  d2 | B>G  E2|G>A G>B|     d2  TBG |E2 GA|   GEDE |
  G2    G2 |g2 d>g|e2  gf | e>d  B2|d>e g>f|    Te2   d<B|A2 d2|[1 BAA2:|\
                                                                [2 BAA ||
 .G2   .G2 |g2 dg |e2 (gf)|(ed) TB2|d>eg>f |    Te2   d<B|A2 d2|[1 BAA :|\
                                                                [2 BAA2|]

